/* XPM */
static char *east[] = {
"64 64 48 1",
". c #321E0F",
"# c #6E4425",
"a c #704525",
"b c #714626",
"c c #734727",
"d c #734827",
"e c #744827",
"f c #754827",
"g c #754928",
"h c #764928",
"i c #764A28",
"j c #774A28",
"k c #784B29",
"l c #794B29",
"m c #794C29",
"n c #7A4C29",
"o c #7B4D2A",
"p c #7C4E2A",
"q c #7D4E2B",
"r c #7E4F2B",
"s c #7F4F2B",
"t c #7F502C",
"u c #80512C",
"v c #81512C",
"w c #82522D",
"x c #83522D",
"y c #84532D",
"z c #85542E",
"A c #86552E",
"B c #87552F",
"C c #87562F",
"D c #88562F",
"E c #89562F",
"F c #895730",
"G c #8A5730",
"H c #8A5830",
"I c #8B5830",
"J c #8C5931",
"K c #8D5931",
"L c #8D5A31",
"M c #8E5A31",
"N c #8F5B32",
"O c #905B32",
"P c #915C33",
"Q c #925D33",
"R c #935D33",
"S c #935E34",
"T c #945F34",
".HRSKTIxombja#jq.uwFDPHDyzyCHQIu.etuHFDFJtkc#mjb.amlqbkbpoFyxwke",
".FQSLSJOzopagbeo.jrtJNQLFINGQLwy.bouDyGADygaehgi.cknnejpqDNBJBvk",
".JQINLNTJykgjdty.jekrNHKGGKIRDyr.baoyAJAwvogkrhh.cj#ghcjvBFTTQKo",
".MDIADHSPyoutrwD.jejuHLJLNOTOxvp.klekrwzpqgfrkoo.cccenmzLQKIMQJw",
".TIzFxNJNPvtxDzJ.lboswGHTTSIArpa.nbjevtjmjapvBtr.nkboglxQJTMTSIK",
".LDptyxMSDGFGIDN.egcekyzQODLAtml.lpcimecbkbjtzHJ.pghrrqMQONCSTJF",
".FtksmzGHQQMDMTM.okbbevFFMAAubce.ztmjbceenkovOBC.AxkqpIIIMByIQTI",
".ErneevANNQIQQNJ.qfcmbqqIJAxrcne.LymjhikapoyNNTH.IFrAEHQGKBvBDDJ",
".rhnnloqvNJMMHQL.ovmd#ntouwtpgel.Mtqocc#ogyHHLOM.FEuwBKIBDynxtDT",
".okclchpvINJINKw.zzmnh#rsyqkgcpy.SIApebbopwQQSOI.IBAzPRMDDrnutDA",
".gecbhchsBOQFPDv.HvBigbkkeooejww.IMDnpggtyKILFDJ.JJSQOTLzrjhpmtA",
".cbnokbbezEFPIDo.MNzuhmkcijhggpz.MOGFyrrzDQKHzxN.NIQINDAzmbhkgpz",
".kbhehebokyCIvxj.HFMzwoegafgoyAI.PTNLuttyFMFBAxH.FISIOADjgacg#fr",
".hmtwopk#pyyzzpc.RTGMrqgl#bpkBzI.LQTDJByFHQNFypp.LLHFBzyekbbbcaq",
".npvDovcdipoxigc.GTJGDwqbacrxwMN.HNSQPyHFIQzzjrt.DzNGIqtihcebkgo",
".vqzDAAijgeqedhj.MOMQEvrpqltyNHI.pyDOTDOTONAjqqc.wDADAwjbinkkkjm",
".owBPOFpka#ncaaj.IBQMTMzjpnDALTB.pyIOLJGIPDqkdhn.hvwxxjhbrrqojoc",
".EBJHKNwjmahglag.tINPJDzzyvAJQGD.ovEQFMLIFyoaa#g.mfnqrkanjztBxkc",
".IRQOTMFAjaj#cjj.rrvNFQBJHBKNSID.nptLOPFGuocgiea.#cicdggrpFMKzwo",
".DTNSMPQxtcbjboo.tooFFGDOKJHMQvw.bcnzALNBpkkamnb.cffmjmpoANPJLzt",
".ISJOMPSNBtpemoA.qdvrJQJINFONNuk.jjdtBGIpvgcjkpk.h#le#jkBJLMLJCo",
".TJNIIIQFFAukqwN.deewACLJPPTDyrm.k#gkoAonjjenynq.meeehiwzJPOMGID",
".QMvyyHTLGAzpvIM.bbkgwJQLISSypkd.jh#ojrmlk#prrAq.pmhclqFNHLTJITJ",
".OurwyGIPQIDtLGK.gjagpDOJNLGAhbc.qm#ankqbanlDwGw.uqrmvzDJGFNDTPJ",
".BspjwrGJJNJFANN.giibltyzNBwlomb.zkbjmakchrzwMJO.BvpmyBLJJDIGDOJ",
".znogjxwGHGJDQGJ.gledkptvAAyqajh.ArpgabkaepzDFIF.LBryHPMFIBtGyPN",
".rcmeddoAILPTQNN.tlobcinzwyogamo.AwmggfkjmBCNOSQ.DFBAIMJQFrvuxGS",
".hcbljcrBJPONOPI.Duvienotkkjgjny.QLzkjjokmuIOKTT.SOMCLTNDwkqqozN",
".na#bnejoHJQDOIB.JDBugeeerqhankB.LKFwnopstKFQFFM.GTMQTKLwlobcoyJ",
".kiaenbjhozKNFyp.PAGvogacjjggtBJ.MLOyorwzzLJINyC.KQGIOHCtqhdkghE",
".bhjjdkcajDAKBpm.QSHyyq#heanbnzI.QOFGzvwBKSSIBrz.DQTTOJqjhjbgegq",
".netwtlmakqAqzto.TSQMBrl#bbhorHN.FQTFzzGGQHMBwoA.yOQSCvnea#bhamt",
".muuxptb#jovopcc.QSPDCvejblntFON.DQTNDAAMLFzrvpk.vyMzytljagcgjap",
".jqDIyAnbecrnbeg.BDJLNGklmevtIIH.vADOSNMJFNvvono.yswGDpabcdurnbk",
".zyBMzzpmjakojfc.KLJJOzrtnlCEFNP.rrOHTSMODvmlbng.rmzvpobglptrtph",
".vITSMDyilchnmac.wGzLGIGzAzJFPOz.epyKNKTDzrtebai.agltmoabvpvtneg",
".BJQMJFxvnknaanj.zzyMPRBBIHJNQLD.ikwIHTSOFrhbbam.kplncaarBvyKwtk",
".IKNQTLQwopadejt.gnzDGOOOFBFHDIw.jlrtFOJAvpnaoci.eaccabpuwDQENqk",
".IHPQMLNJDrprklD.pchvzFNDDNOMyyr.anewFzyqqceemnp.bjkljdrFDGHMQJq",
".SCJBzMQNyyqkoyF.eedwDNINTMTJFth.eheioDArjnmkwpt.klhgjjoMFNONJBv",
".QMywzLLIBvzttIJ.bebrwzISRHODpmg.m#hekttkmjnrtDy.winapvIDITJPKQz",
".OvtryBATMzFGAQJ.ai#gtzNDFHNtug#.nnjgjojl#jnCHMG.wrdmjyMOSIHBGJJ",
".yvtgwwHQOCAFNPN.pb#hctIzOJGtrbe.skdaefml#pvFMIG.GtjtxyOIQOyKIFT",
".ytlohsrNQLLNITS.lpoacqzGIyotbcp.LwpmakhhkvAEQNI.yGzyFNKJAzryAPO",
".pgkbjryyMILSTJI.pynmfhvrtrto#hg.IzucgjebkrMORSN.GDwHFPTOzvorxyI",
".recjjguzFPJNKFv.twwpecjkkphjcly.SzwkbeccuzFNGRJ.LNOGJINzwtrprBA",
".clechalvEDJDLKz.DDAwekegcejbhty.TKzpmdpjCIIIGIP.NIDGTIBCvpkjoAy",
".ajboebkkvvAADzn.OCwrlnegbobjjzx.NSGEwwvqLLSQJMB.HJSJTJyopbbepur",
".ajprjakjqDyFvve.PTJBmpacc#nkrwI.JMJzDwtJKJQItAz.JJFQTLBga#i#npt",
".bqwwwqb#grptzmc.JGHFrtokbnbttEJ.JSJIDBDLIJNwqyt.xIDMFErlakkj#mf",
".ovvDyrpabllqlga.TMPQFureobgsxHN.vHTSFDLMTIxzrto.wIzIxynbkcdmaho",
".nuyIwxickhkrjad.QIQTCtrpgqpGNOQ.zzMNMNQJIBtqlgh.tryDywdkdlrqkkf",
".AzHOAGnkcaibcal.LJDOHztptrvKTMO.vwIIRTPHQGogcgh.ptytvjachvrxvea",
".uNOFIzBjccagack.tADDGQJrvqAJTPL.cyIIIOTDGrhc#jg.npluge#prttxoha",
".DSKTJGDzngcl#om.prAzJMAzyDITSHA.bjrLGHIMtpcbjke.cdmrbkklrIzFtud",
".LQJPTFIApqgocls.kqnGMJNEFFQPOyt.minyCFHzvqlbgjk.cbhlm#nyvFKLyro",
".TIQBMLPJBoiglyu.pektDNJLNOGLJAi.mafrDIBzpkckkjq.jj#dagmDKOSNJAx",
".LSDyJIIQGptqwBI.cjbovBGROTTAvuk.nejptwpkcioqvpm.onekcitADQPQPQt",
".QNyGCzJQKzpttGQ.c#bnpMGTQJOIwpj.raicnvhnnbemBzB.tpbkgvHMTPGFTQz",
".zAqvpIDONHIIxDI.amejrCMISNytoib.tmdbbmji#juByDA.ohedrwIQTJMPJJO",
".zwrlqzDDJODJMJP.gg##pyzABMAqoib.wtalcebjidsGHJA.AtpxyKQSINDzGQM",
".wpgmjwFDFMLPTNN.iojenszvvwwkbck.wteelgakgxHPOIS.IHxtFMSLIDxuKJL",
".okanlqwwFOJQITF.nxjamlvpyyinijr.ODreaakghyHGPOP.QDxINGTHJxmovAN",
".legjgctvNNTSTQv.Gvtqahgvpncegro.QNyroacrswFJGIP.LJzILPFNtlgpuHC"
};
