/* XPM */
static char *south[] = {
"64 64 48 1",
". c #313339",
"# c #32343A",
"a c #33353B",
"b c #34363C",
"c c #35373D",
"d c #36383E",
"e c #37393F",
"f c #383A40",
"g c #393B41",
"h c #3A3C42",
"i c #3B3D43",
"j c #3C3E44",
"k c #56585E",
"l c #585A60",
"m c #5B5D63",
"n c #5D5F65",
"o c #5F6167",
"p c #616369",
"q c #63656B",
"r c #64666C",
"s c #66686E",
"t c #67696F",
"u c #686A70",
"v c #696B71",
"w c #6A6C72",
"x c #6B6D73",
"y c #6C6E74",
"z c #6D6F75",
"A c #6E7076",
"B c #6F7177",
"C c #707278",
"D c #717379",
"E c #72747A",
"F c #73757B",
"G c #74767C",
"H c #75777D",
"I c #76787E",
"J c #77797F",
"K c #787A80",
"L c #797B81",
"M c #7A7C82",
"N c #7B7D83",
"O c #7C7E84",
"P c #7D7F85",
"Q c #7E8086",
"R c #7F8187",
"S c #818389",
"T c #84868C",
"BJKg#c.i..hdfehh#fhddg.cgdehabgdhcxwlummkrwuqynnmmnomymolxowoogd",
"ahaghdgahbdhijdb#cjf#e#hhfcajhi#bimnuoxkwxlorplkxlzlpzwplrrnpxlc",
"gga#a#iafjei#fji.a.#echdf#hcbdfc.fzlmplqnxnozlwpoyAmwmktorlwpvom",
"e#fi#fbjii#.ejjchhafa.b#jdh##dbg.iomzoxlprxsvumlzrrowswzorwmtmmp",
"i.hdfhecjfhehgdghejfgejjgbca.jhhbcvwwortwmvltrnpmomtovxuznlrxsqu",
"cafcgc#hb.debhaf..ieceigjbibjia#hdnvrttrqzpqlrpoymqqlowlsltqyttp",
"jaebi#g.g#fgahad#ecgcciaafh.jcj..ewymrmmowxrqxsxmlvkkpzyvnnompxp",
"jjedechcihg#feeebad.#fjhejfeg.a.iemosxlyxtlmmrkymsykmvvzzvowllmi",
"efibcbhfcda#dbbjee#ie#daahf#.haecjomrolnlmmrowlmpqlzlsoprmyolaeh",
"aefjbdgcd#cfji.#gaijddccaaifeca#bhrlmqlopmososmtqloumopwlyjgg#ii",
"i#iihg#icfejifd#c.hfijii#cjgbjf.dibpypxlmnooluuplqlzrtkocgcicjeb",
"T#b#h.#h.hffdh#a.jh.bdjag..aeg.b#fedgprzmullotrvlutktlig.igdbTDN",
"AHdiddh.bf.ff##.bedd#..dah.#g#bhcNdaabyzuqqnmlnrzmrhdeh.fSTFKRRF",
"CSabdbjeffgabd.#f.iff#bd##ebefb.wDDLg.#jmuzooupqf#h#bEOMASEAEECS",
"Lh.dg.a.eiaibeacbbfeahiehicfieauxBHHAzjfgyll...g#fTRIFOGACCKTTTC",
"jiagibegc.d.figbjgjeehg#hcgbccNItFLGzMrvjdgcjcgSMTRSIRSTMLNFMTQP",
"dijhchfiah#.ah#.#hbdcbaffdbgc#GEyNBrrBLBCrgdaTAGRSEJzCSRTJLKPIT.",
"gi#b#a.hhagag#gec.g#bdbcji#fjywrIuzDvttGrr#fzSCTSRDKKBIOMRCCLSee",
"hcbdhgci#hf#bd.ifchbbjcgjfddyCFvwwwCxLLDyxJcdPRSCRGPHMGRNDQSahfa",
"befjjajjbadfcahiehgi.fdfbiexvJJuEMsHNwBsKvAa#EGNNIEBBQJQINIbdedi",
"cfcacbf.adccg#ajafhjhig.diivxCvsrFIMMuDMLvJu.BRDCKRQCTFzSR...#ib",
"aahcdgeejfgeehfbccad#hfaadBBLAzrMLMwrBzFAEyCjdHDTDTCQFzELcdbedhh",
"ejcdbic.jehei.b.jddfibibeFJEGJIvJAwMxNNrEJwJDaTKCBMHRJH#jbzp#.#i",
"jcb#b.hetnhjajgc.befac#fCJwrEwFGsEGrKFGJyCwGzabHECCBNCd.xvsv#jfa",
".a.bdcboqErighcjifidfh.hBuxFHBCLNEEAMJAHCCHrxzhKSTTNbdfloAoejcjb",
"eehb.FoxpopFuegf.gfca#bejiqvIIMNsAsIIBsFwrIyzugfTR#eaCwoopweafgj",
"fdcamsmqFDwrBE#f#dgfibb.jb#crCrxxrNxGKMEKyswxLaaiehebroAwlAf.j#d",
"efuAnowvCwmoyoEe.bhevgecia#fjzuvsuFsFtrNHHGtveg.agicgaapzzdddhga",
"bpozszmspooCBEps#fCRGJxAC#ecjiaMMKDMLENqMxGeabbfgeciihdeviicKgdg",
"onpDrFwCCnDwnpvzabxLLPFRMOwFegh#jDFuJvruJbd.gxHHdic.i#.d#geIBfdB",
"vxosoBspvDABopzseMwuLGOHDJKNuyOai.##wDJd#g#zzErHgcnnnynCnhfpjhur",
"AzvyFpxAtppouoxueMxNAIuCuEuItzzBBCee#afhcrGEruyJChnxyFFpoq#ieumw",
"pBoEtDtrzumpomywaHJLDxzDKCLGyBMvONARch.yuFxFwMLqrcbhuEBArwabdBmx",
"mxmBpDozqBppyro#fGKMGIyHIyyDBzOOLQPIFbdByCJKqtINqh#jcgb#cfc#bnou",
"zpuorsBvzroyEv.c#QKOAGDLNIMBFDEMuKwwM.jBuyKrKqsAw#aceeiefhjbhFAq",
"pCDzurowwonr.eebjKEzNDIHQDINOJNJLLJLOv#HDECsCwHKCiiivmvuoqzl.#ws",
"rCwoouFovqiif.bcfRPHEuMMDMGxJvGHBIPyHNhKHIwxLsJHyfimxwwmukspijjr",
"onowBBmcffgcfyHE#aAuFEAxKExDOJHBHvOLNPjCLrHqLFvMt#joymyopypmAg#a",
"hEqsucdefaHuOAuNbdKNDGPPLFGPvNJOPHNwyGagAGDuzIKCKablmuzkvrtosAgj",
"c#ceif#RJJtBRQKDxf.HBDEHuHMAEIAGuxPuBugeMDFBwsKxGfbpqpvytoomxoaf",
"fh.jFGCxIPFKxNBHFhgtJKMCKOJOLDLBEuJxPxiad#ftvLFGJhjqxrlomsymutyj",
"jjyKBIKwOQwKCuJGQQ.BFKNzyIwJFHPwFFuGe.aHHb#chiairbgrlzvloprzlrpg",
"dAwNGOBxwBNNDvBMFMdaFBBLJGBHQMBKIxwihbDSTBSJfjihi..mrqmlnwporAdj",
"yEIEQJxtCGLxCyQGMxGgyvyxNtBvCtvzzxd#LMCLSTLHRIPcjfhspxqtoqmol.ag",
"PJQQPBxHHILOQLMJHJzafKzHPyHBDFJLabeGGSROREKSSKEEBadpplpxorqy#hhD",
"MOGxOAGIQOGFHCyLKCFycvNLRMyAAPJi#iEFRTSADORROIAHLPaakopmrlz.##KK",
"EEJuILvwDwxwKEKJPLQygeEBGJEON#bbgPDIAQTDHDSOQITRSBRhgrltpkjbcBCB",
"PyuQOMuRPDCxzFvIvKQD.#AJPBzhfgafTJMTPITHBKQTJKEGLCSdeuvpliecLvxG",
"GGNJExuKRKEyuEzEzvuOCbhxKuaedb#AEQTEJSTKGKJSCOMSQLATdbru.fbuJHGQ",
"vKLOIAtzRvMuIFNANNPDIfaHhec#bdGFEHERTQOOTTKARTEKTQALha.fh#PQQMzK",
"LHHOMExwRQLGIQPFNOQPPAhieee.hGBLLCSSJCOCPCDTQOSOKTDRJgf.gzMMDCuP",
"JxAPKHBCwPHOJJxIOPKAICb.b.#jIRSJNDMNSFMMMOTDGLTRKNKPBafgCLINROKw",
"yKPBRuzGvBNuxPAAxwvBuy.chihDGNRPNTRSLNCCGMTSSPTPTNONSGcIEPCBPvBz",
"BJwIKJvKFCKCKCvvKvNGMNyc#bJBLBOPHDMOEHJJSSRNKMBSGASHKIcPHMBByMMu",
"wOCMOMOyDKuDBIzuKJxyxAhidJROJCERCJTMTMMJBRTALMJRTDTEOd.MERDzxNvL",
"PuGzLFzBHCLuGRICzFBwhih.dcPIDETCTDRKRORTQPSCKRRFHPRLic.FKJvNICzu",
"BIuIMzKFxIzNOtOOMLgdicbjdacBOFRNAQRSQFODLMQTRSNKOMi.b#b#CuvLHLCz",
"APNJHxzHwRRJFDNQjeeaha.c#eghLJACHJSHTFNTPPCMBLKiaih.mukccNQQHEvu",
"KEQJDvtJPAvvNRzh#jhehdbeffeefCMQPRBASKISNTAOjicfhmkzqkyx#dBBQEEK",
"JwAIMvJNGAIHQajfhig#cdb##cggciJTLFDSLEENg.ehgtmlooyyvoplog#HRINO",
"wNvyvOLzNMua.bjg#hbhefi#jcjedhiRBGBINadjgexmwlpomqkomqzzxyebzPMI",
"ODwuBEEAufcahehdgf##jjbj.agaj..#Khi#h.atmxzrsmrrkmypuswpqytcaLvt",
"DQIQMtK.jdg.fjcicaec.efdhedgdgjeec.c#nmrvlmomxmlpmlmyslunwlt.dJC",
"tLGPF##ajgjhedifd.aiic.dfdcgajhaiextsqoupmoqlrnuspslqllzompvrejF"
};
