/* XPM */
static char *west[] = {
"64 64 48 1",
". c #313439",
"# c #3F4249",
"a c #666C77",
"b c #666C78",
"c c #676C78",
"d c #676D78",
"e c #676D79",
"f c #686D79",
"g c #686E79",
"h c #686E7A",
"i c #696E7A",
"j c #696F7A",
"k c #696F7B",
"l c #6A6F7B",
"m c #6A707B",
"n c #6A707C",
"o c #6B707C",
"p c #6B717C",
"q c #6B717D",
"r c #6C727E",
"s c #6C727F",
"t c #6C737F",
"u c #6D737F",
"v c #6D7380",
"w c #6D7480",
"x c #6E7480",
"y c #6E7481",
"z c #6E7581",
"A c #6F7581",
"B c #6F7582",
"C c #6F7682",
"D c #707682",
"E c #707683",
"F c #707783",
"G c #717783",
"H c #717784",
"I c #717884",
"J c #727885",
"K c #727985",
"L c #727986",
"M c #737986",
"N c #737A86",
"O c #737A87",
"P c #747A87",
"Q c #747B87",
"R c #747B88",
"S c #949CAD",
"T c #ABB4C7",
"................................................................",
".cqAcarBauDeuayEArrAbrnzJycBErxS.IaqDglFmGxxxrhiIfcrHkMrrnzqnxuS",
".ucHexqBBFHCohCqndvkmngnreuxkqHS.uuqmqkIkxQcrOzEOdyuyBExryAARfoS",
".rExHfxykqqrAhnxmAxcnzacJDdGkaDS.EtHnyuqfuvxzAnqEieHhnnxqqGnLqkS",
".HtqTyRkkvrenrxEnnrDBJnnMuxTqquS.RoATkqAkCqqEnhAnrbxhazwuqqTynqS",
".jdrm#uxGJndLxHAcxqEdHrrxGEM#hvS.rluu#qDaxnhjJqqJrjmurquqrhA#uqS",
".rCucCPlyMEDAuurgqrEgICunjgEjHnS.KrkrkvErDnvmudBHenPqqHuhQeaMAHS",
".zqFAEBqhPpxIbnPxbLarnnbFgruudMS.ucEuvCAyrypnPBqqBjyAvxBAxFkydrS",
".uhChsJwyMxBEduIqtFlkMuArBzzhfrS.qdxEErHvEvkEraxrqyRDfrtrPFkMEgS",
".rqMzrPeqHucHGkxcxRhxEnkJrrNkbHS.FrArwjmuEqneMcDynfqlEJwnuqEPlyS",
".dGtqanrmKprqwnynmqDCuztAkfMhrPS.JBBMxqQocFAkProrAmnurnuDJhvnzuS",
".qBMrqMmguhnualnhyxxkBHrBuisamMS.HqgFkuLciqEuJmkMahucdJvqCquPekS",
".kECgaCxBuuDIAkEgurGqJnrIygyqErS.IngEuuHnHCDzArkqnnvkuEapqfxrqqS",
".HDrwrnAyyBDIuqHrARsxnAquhrRDrFS.rrnnqcEnHJugMhkBorMFxxguHgEKuuS",
".DrqrACnuJrfLuqPnyRbeAfqqrnFikIS.HuqnxcBquMACRhnAAqJzBHDdvuwJqES",
".ruHyrIkcxrhRkkAcEqgiHlcxHeFnECS.GDqAcDrGAFnruHruEHMqCPAdrflrqvS",
".FnIgEHviBFzrcrqrEHuHrgdMxdwyrES.AhkxqjreyEruPqyPuqzmFOdvxruPDdS",
".kqIctMhqAbHExeyvHRzbqFuRyrHnBqS.AeyRpFmHyPkAPfBqwHutcOhqyhqxydS",
".muunkngjMdkxnDqAAqnqqhrKnExumES.HnDLkcrCALlGJmdIhERAEtrqrEimqjS",
".nnJdxuBfqjAArtudDnalrqqqhxLrcJS.phdqdiApuPaAoqcHulumqnuumCBHjAS",
".gynbhnFqvuFPamMgyqAbybltyrnHnOS.qffnHiRfvnnuqvundytkiqigrnGKgxS",
".okqkruAuyakBqkJxsxqqHuCrvrFgqrS.vgnQnmMkzxgANruykkKnjMxgNzFPnxS",
".rxIoyNrDJghPynPgeAgqHEFJriuFkDS.HbAxrkAuuJyAodCHrdOrhAbaLqnAgBS",
".rqArxDfxEeHRnhJAqruBJHuxxnyEhqS.MtEnnrBvHquxxkqFqvyDivubPenJbnS",
".ksJdiukqHBurxrqcrKkxPCqrdjDeauS.HzcuEgPgrOCExrbRDusfFJjDPkjqclS",
".qHqBEqEnpAdIdqrfxEkBnfEHaGCAdqS.MkfBxzFGqBqkyujKdEBueRerujgwDdS",
".hcEqvxnjwglJqkofnBAEArxurEyurRS.neHImqPEhxrDMhupgnJnntDqHdCHkBS",
".rFyTcIqANauLouHHAqffAgrqnATirrS.CqCTnuEbknykFenKxEwbCJhGPETHtES",
".kuPn#RuqrerMakFExvkuNeyJduu#AuS.ndrD#arnHDxbRqsqfhHxxsEjIua#rFS",
".tkJrkExBEquHngFrancmAiyxDduqdrS.ErfrakAnuGBkuzqPlDnkhJEguabpxkS",
".FnqrluFExBrxggAjyrfAHkgrduPfnnS.EnEHuqqkgqfkyrzOnjrnuAHarennhBS",
".SSSSSSSSSSSSSSSSSSSSSSSSSSSSSSS.SSSSSSSSSSSSSSSSSSSSSSSSSSSSSSS",
"................................................................",
".ueAGxqvhHprOmhCcduDALgquqCNDnLS.unFPqBHkyFHjzkqqArIBayfayervrmS",
".cqqqpBuiuaqJjDMdruCuOhAuqrMExJS.RxqNnCuuqrurqqwPHfrqxqcrIlxxnxS",
".uvMAAyadqAgMBDIrrunjRrhJqqEaAqS.yxuInCGjEODunHEuxcMfuJdrrcuOaeS",
".qACTxnDhCruJbjnkknnDvxBrudThkuS.FaETlkqBqudEnDAHnuIuhIqeBnTBqdS",
".nnJr#qdCICmRhhxrtyqgxnjsuzB#nHS.ImcH#kyrurAzmAmqBgJqrHjdxyc#DnS",
".jAAhECrqOBuJiCMFAAEFqDrqexHEhJS.pdBIkhHqDRnuMxqAyBKEEHsqxxqJnqS",
".xnMhAnunqBkqvwxAuQgBEyjFaaIqjnS.GeEvydnxEybbxrxHBEECErlrInDEerS",
".jjOrpGCwrgDqHqquqqrkDkDOHqqaAHS.nncuyAutrvhfNnuJDxriEMEnIBhnEcS",
".BtnqemFCCcrRixumDEgwFiEIupqznCS.LffGrnRykAxjAanIdBRbnDhArCqPuuS",
".rHJfqrHxxbxyqqMrqNerLhEzrvxduNS.PggyqrHaxrudxAgDuwIGausAEelFqgS",
".qkDhrQrlPEFuzePnqErFqFCMndCdeRS.NncIhkIgFDDnAcinfhqxgGdrMbkEGnS",
".HgMohqrnOaFGafugnIfxEnqKuHImDHS.uFFxozBcnOAnuFhvdnyrrMnDrykrkyS",
".nrygpBqnukgMAqCarFjzHzurBjrGqES.xzAucHngkAxaAkEJyrIqEBfGuuEHGaS",
".qmRecqxaRahDknOfquwvriqMyhKxdqS.uCnrqkDBnrvennirxnuFjJHAMusudvS",
".nyrqbJfhMphznHqdlAGxJyytdynjeRS.nucEdBrAiFmdJFknmuEfBPxprAFPhAS",
".rFunEHucxAnxCfrxetqzzqunxknkjOS.HjDxEdnugRqeGloHevAeEQAErgeyxdS",
".iuqujEdlrqAqbfBqaHnuFxnrjlnHaJS.rquOykwcuBqnrAkExhyxwudxqArqdjS",
".gcJdjxdkqdrDninrhJDvCxurBjEvdPS.xayEkqAcaqjxJGEAqkxAAHBlrqrpeAS",
".AkunuqnmMuqBiqHeyBpfysnqnBPqhnS.qrCAkHqfxPykxdkxnqrhkHdqJwgHnkS",
".HxrEknjkDruOEhDAinrqEunrBzEgFJS.quqnminEcJxrpqeqqrnrqEHnnBmAuAS",
".BquuungCqekMAHxxrCdFRqqGwFInjRS.EHnxByJeuFhEBdBrCxHDcCFxqhBBqqS",
".gnLxqqBdFrknBkEcqqnkBmiIEBrusJS.uxuqEzOeAnuyuDdJHFsqqrEBRxnnxnS",
".jBJrlqnzEazAnvvFcExkOrqGEbRuCIS.OmFPprnhGAEqAfqrkaPkuHxFquDMiAS",
".hiuEdDukukGNkvHgkLyaEqnOdvBuHyS.EdqrrxOqlMfBRwuBBnoEAnhnFgrRbFS",
".nsPqgrnixrdnBArwBKAkuufmqgJkhLS.rjhxFxxEjnqALgjDnuqmaumBEnGMuES",
".uDPBCsqENqmudCycqLraJAmqrqPHyFS.RqtFjaIqCGDCzcBFEdRhrKFEAmqxqmS",
".xqnTqurxrkhRuuzraRElPuAyxATncMS.rrdTrgvqknfcMCrNHqrnBBAuJjTEynS",
".nlwa#ndzzrupAumkEMfCIqrJchv#FJS.uujB#yIirHgizqqMEqrequnqyvD#FqS",
".uEPuAuqzxkkrkrvsBAqjMbyrnpAbDnS.xkqrdlAhzntAHcCJAnxrjukjRAuyjFS",
".foRuEHaFubHJdxMsyxqdHurJBHpdDBS.PndJqqquuBvkAsnHAnOxaxfnRsaGdxS",
".SSSSSSSSSSSSSSSSSSSSSSSSSSSSSSS.SSSSSSSSSSSSSSSSSSSSSSSSSSSSSSS"
};
